**kern	**kern	**dynam
*part1	*part1	*part1
*staff2	*staff1	*staff1
*IPiano	*IPiano	*IPiano
*clefF4	*clefF4	*clefF4
*k[b-e-a-d-g-]	*k[b-e-a-d-g-]	*k[b-e-a-d-g-]
*M2/4	*M2/4	*M2/4
=1	=1	=1
!Tempo Marking: Mouvt de Habanera avec de brusques oppositions d'extreme violence et de passionnee douceur	!Tempo Marking: Mouvt de Habanera avec de brusques oppositions d'extreme violence et de passionnee douceur	!Tempo Marking: Mouvt de Habanera avec de brusques oppositions d'extreme violence et de passionnee douceur
(<8qAA-/	.	f
[4DD-~)	4r	.
!	!Expression: apre	!
.	(<8qEn/	<
8DD-]	8AAn^L)	.
.	(<8qAn/	.
8r	8Dn^J)	[
=2	=2	=2
(<32qqEn^/LLL	.	[f
32qqAAn/	.	.
32qqAA-/JJJ	.	.
[4DD-~)	4r	.
.	(<8qEn/	<
8DD-]	8AAn^L)	.
.	(<8qAn/	.
8r	8Dn^J)	[
=3	=3	=3
(<32qqEn^/LLL	.	f
32qqAAn/	.	.
32qqAA-/JJJ	.	.
8.DD-'L)	2ryy	.
16AA-Jk	.	p>
8DD-'L	.	.
8AA-'J)	.	.
=4	=4	=4
(<32qqEn^/LLL	.	]f
32qqAAn/	.	.
32qqAA-/JJJ	.	.
8.DD-'L)	2ryy	p>
16AA-Jk	.	.
8DD-'L	.	.
8AA-'J)	.	.
*	*clefG2	*
=5	=5	=5
!	!Expression: tres expressif	!
!Dynamic Marking: pp	!	!
(<8.DD-'L	[2Bn~	]p
16AA-'Jk	.	.
8DD-'L	.	.
8AA-'J)	.	.
=6	=6	=6
!Expression: simile	!	!
*^	*	*
8.DD-L	[2F	2Bn_	.
16AA-Jk	.	.	.
8DD-L	.	.	.
8AA-J	.	.	.
=7	=7	=7	=7
8.DD-L	2F_	(>4Bn]	.
16AA-Jk	.	.	.
8DD-L	.	[4c	.
8AA-J	.	.	.
=8	=8	=8	=8
8.DD-L	2F]	4c]	.
16AA-Jk	.	.	.
8DD-L	.	[4dn	.
8AA-J	.	.	.
=9	=9	=9	=9
8.DD-L	2F 2Bn	12dnL])	.
.	.	12en~	.
.	.	12en~J	.
16AA-Jk	.	.	.
8DD-L	.	(<8eL	>
8AA-J	.	8dJ)	.
=10	=10	=10	=10
8.DD-L	[2F [2Bn	12r	]
.	.	12en~L	.
.	.	12e~J	.
16AA-Jk	.	.	.
8DD-L	.	(<8eL	>
8AA-J	.	8dnJ)	.
=11	=11	=11	=11
8.DD-L	2F] 2Bn]	(<8.enL	]
16AA-Jk	.	48fLL	.
.	.	48a-	.
.	.	48fJJJ	.
8DD-L	.	[4e)	.
8AA-J	.	.	.
=12	=12	=12	=12
8.DD-L	2F 2Bn	8en]	.
.	.	8r	.
16AA-Jk	.	.	.
8DD-L	.	[4e~	.
8AA-J	.	.	.
=13	=13	=13	=13
8.DD-L	2F 2Bn	(<8.enL_	<
16AA-Jk	.	96eLLL]	.
.	.	96f	.
.	.	96a-	.
.	.	96bn	.
.	.	96a-	.
.	.	96fJJJJ)	.
8DD-L	.	(<[8.eL	[>
8AA-J	.	.	.
.	.	96eLLL]	.
.	.	96e-X	.
.	.	96c	.
.	.	96Bn	.
.	.	96c	.
.	.	96e-JJJJ)	.
=14	=14	=14	=14
8.DD-L	2F 2Bn	(<[8.enL	]p<
16AA-Jk	.	96eLLL]	.
.	.	96f	.
.	.	96a-	.
.	.	96bn	.
.	.	96a-	.
.	.	96fJJJJ)	.
8DD-L	.	(<[8.eL	[>
8AA-J	.	.	.
.	.	96eLLL]	.
.	.	96e-X	.
.	.	96c	.
.	.	96Bn	.
.	.	96c	.
.	.	96e-JJJJ	.
=15	=15	=15	=15
8.DD-L	[2F 2Bn	[2en)	]
16AA-Jk	.	.	.
8DD-L	.	.	.
8AA-J	.	.	.
=16	=16	=16	=16
8.DD-L	2F] 2Bn	4en_	.
16AA-Jk	.	.	.
8DD-L	.	8.eL_	.
8AA-J	.	.	.
.	.	(<112eLLL]	<
.	.	112e-X	.
.	.	112en	.
.	.	112e-X	.
.	.	112c	.
.	.	112Bn	.
.	.	112A-JJJJ	.
*v	*v	*	*
*	*clefF4	*
=17	=17	=17
!	!	!Dynamic Expression: molto dim
*	*^	*
8.DD-L	2F~)	12F'L	[p
.	.	12En'	.
.	.	12E'J	.
16AA-Jk	.	.	.
8DD-L	.	(<8E'L	.
8AA-J	.	8E-'J)	.
=18	=18	=18	=18
8.DD-L	2F~	12E-'L	.
.	.	12Dn'	.
.	.	12DJ	.
16AA-Jk	.	.	.
8DD-L	.	(<8D'L	.
8AA-J	.	8D-'J)	.
=19	=19	=19	=19
8.DD-L	[2F	[2D-	pp
16AA-Jk	.	.	.
8DD-L	.	.	.
8AA-J	.	.	.
=20	=20	=20	=20
8.DD-L	2F]	2D-]	.
16AA-Jk	.	.	.
8DD-L	.	.	.
8AA-J	.	.	.
*	*v	*v	*
=21	=21	=21
(<32qqGn/LLL	(<32qqeen/LLL	sff
32qqB-/	32qqddn/	.
32qqc/	32qqcc/	<
32qqdn/	32qqb-/	.
[32qqgn/JJJ	[32qqen/JJJ	.
*^	*	*
2g])	8.r	2e])	[
.	16AA-	.	pp
.	8DD-L	.	.
.	8AA-J	.	.
*v	*v	*	*
=22	=22	=22
8.DD-L	2r	.
16AA-Jk	.	.
8DD-L	.	.
8AA-J	.	.
=23	=23	=23
*	*^	*
8.DD-L	[2F~	(<12E--L	p>
.	.	12D-)	.
.	.	[12D-J	.
16AA-Jk	.	.	]
8DD-L	.	4D-_	.
8AA-J	.	.	.
=24	=24	=24	=24
8.DD-L	2F]	2D-]	.
16AA-Jk	.	.	.
8DD-L	.	.	.
8AA-J	.	.	.
*	*v	*v	*
=25	=25	=25
!Tempo Marking: Rubato	!Tempo Marking: Rubato	!Tempo Marking: Rubato
*^	*	*
*	*	*clefG2	*
8ryy	8.rA	(>12een'L	pp
.	.	(<32qqee/LLL	.
.	.	32qqddn/	.
.	.	32qqcc/	.
.	.	32qqb-/	.
.	.	32qqen/JJJ)	.
.	.	12e' 12ee	.
(<32qqGn/LLL	.	.	.
32qqB-/	.	.	.
32qqc/	.	.	.
32qqdn/	.	.	.
[32qqgn/JJJ)	.	.	.
4.G 4.B- 4.c 4.d 4.g]	.	.	.
.	.	12e'J 12ee	.
.	(<16AA-	.	.
.	8DD-'L)	12e'L 12ee	>
.	.	12f' 12ff	.
.	8AA-'J)	.	.
.	.	12e'J) 12ee	.
=26	=26	=26	=26
8ryy	8.rA	(<12ddn'L	]pp
.	.	(<32qqdd/LLL	.
.	.	32qqcc/	.
.	.	32qqb-/	.
.	.	32qqa-/	.
.	.	32qqdn/JJJ)	.
.	.	12d' 12dd	.
(<32qqF/LLL	.	.	.
32qqA-/	.	.	.
32qqB-/	.	.	.
32qqc/	.	.	.
[32qqf/JJJ)	.	.	.
4.F 4.A- 4.B- 4.c 4.f]	.	.	.
.	.	12d'J 12dd	.
.	(<16AA-	.	.
.	8DD-X'L)	12d'L 12dd	>
.	.	12en' 12een	.
.	8AA-'J)	.	.
.	.	12d'J) 12dd	]
=27	=27	=27	=27
(<32qqE-/LLL	.	(<16qqcc/LL	p<
32qqG-/	.	16qqb-/	.
32qqA-/	.	16qqa-/	.
32qqB-/	.	16qqg-/	.
[32qqe-/JJJ)	.	[16qqc/JJ)	.
[2E- [2G- [2A- [2B- 2e-_	8.r	2c_ [2g- [2a- [2b- [2cc	[
.	(<16AA-	.	.
.	8DD-'L	.	.
.	8AA-'J)	.	.
=28	=28	=28	=28
4E-] 4G-] 4A-] 4B-] 4e-]	4DD-'	4c] 4g-] 4a-] 4b-] 4cc]	]
!	!	!	!Dynamic Expression: piu
(<32qqDn/LLL	.	(<32qqbn/LLL	p
32qqF/	.	32qqan/	.
32qqGn/	.	32qqgn/	.
32qqAn/	.	32qqf/	.
[32qqdn/JJJ)	.	[32qqBn/JJJ)	.
4D 4F 4G 4A 4d]	4r	4B] 4f 4g 4a 4b	.
=29	=29	=29	=29
(<32qqE-/LLL	.	(<32qqcc/LLL	pp
32qqG-X/	.	32qqb-X/	.
32qqA-X/	.	32qqa-X/	.
32qqB-/	.	32qqg-X/	.
[32qqe-/JJJ)	.	[32qqc/JJJ)	.
[2E- [2G- [2A- [2B- 2e-_	8.r	2c_ [2g- [2a- [2b- [2cc	.
.	(<16AA-	.	.
.	8DD-'L	.	.
.	8AA-'J)	.	.
*v	*v	*	*
=30	=30	=30
4E-] 4G-] 4A-] 4B-] 4e-]	4c] 4g-] 4a-] 4b-] 4cc]	.
(<32qqDn/LLL	(<32qqbn/LLL	>
32qqF/	32qqan/	.
32qqGn/	32qqgn/	.
32qqAn/	32qqf/	.
[32qqdn/JJJ)	[32qqBn/JJJ)	.
4D 4F 4G 4A 4d]	4B] 4f 4g 4a 4b	]
=31	=31	=31
*	*clefF4	*
!Expression: sempre	!	!
8.DD-XL	8r	pp
!	!Expression: marque	!
.	(>[8F~	p
16AA-Jk	.	.
8DD-L	16FLL]	.
.	16En'	.
8AA-J	16F'	.
.	16Gn'JJ)	.
=32	=32	=32
.	16qqF^/LL	<
.	16qqc-/JJ_	.
*	*^	*
8.DD-L	4c-	[4F	[
16AA-Jk	.	.	.
8DD-L	4ryy	(<16FLL]	.
.	.	16En'	.
8AA-J	.	16F'	.
.	.	16Gn'JJ)	.
=33	=33	=33	=33
8.DD-L	(>4c- 4e-	(<64B-LLLL	<
.	.	64GnJJJ	.
.	.	[8..FJ)	[>
16AA-Jk	.	.	.
8DD-L	12cnL 12en	4F]	]
.	12d-X 12f	.	.
8AA-J	.	.	.
.	12dnJ) 12f#	.	.
=34	=34	=34	=34
8.DD-L	(>4c- 4e-X	(<64B-LLLL	<
.	.	64GnJJJ	.
.	.	[8..FJ)	[>
16AA-Jk	.	.	.
8DD-L	12cnL 12en	4F]	]
.	12d-X 12f	.	.
8AA-J	.	.	.
.	12dnJ) 12f#	.	.
*	*v	*v	*
=35	=35	=35
*	*clefG2	*
8.DD-L	(<12GnL 12c 12en 12gn	p
.	12g 12cc 12een 12ggn	.
.	12f#J 12bn 12dd# 12ff#	.
16AA-Jk	.	.
8DD-L	8E-'L 8A- 8c 8e-	<
8AA-J	8F#'J) 8Bn 8d# 8f#	[
=36	=36	=36
8.DD-L	(<12AnL 12dn 12f# 12an	p
.	12a 12ddn 12ff# 12aan	.
.	12a-J 12dd- 12ffn 12aa-	.
16AA-Jk	.	.
8DD-L	8F'L 8B- 8dn 8fn	<
8AA-J	8A-'J) 8d- 8f 8a-	[
=37	=37	=37
8.DD-L	[2c-~ [2f- [2a- [2cc-	mf
16AA-Jk	.	.
8DD-L	.	.
8AA-J	.	.
=38	=38	=38
8.DD-L	(<8c-XL] 8f-X] 8a-] 8cc-X]	<
.	8d-~J 8g- 8b- 8dd-	.
16AA-Jk	.	[
8DD-L	12e-'L 12a- 12cc- 12ee-	.
.	12d-' 12g- 12b- 12dd-	.
8AA-J	.	.
.	12c-'J) 12f- 12a- 12cc-	.
=39	=39	=39
!	!	!Dynamic Expression: dim
8.DD-L	(<8B-X~L 8e- 8gn 8b-X	.
.	8c~J 8fn 8an 8cc	.
16AA-Jk	.	.
8DD-L	12dn'L 12gn 12b- 12ddn	.
.	12c' 12f 12a 12cc	.
8AA-J	.	.
.	12B-'J) 12e- 12g 12b-	.
=40	=40	=40
8.DD-L	(<8An~L 8dn 8f# 8an	.
.	8Bn~J 8en 8gn 8bn	.
16AA-Jk	.	.
8DD-L	12c'L 12fn 12a- 12cc	.
.	12B' 12e 12g 12b	.
8AA-J	.	.
.	12A'J) 12d 12f# 12an	.
=41	=41	=41
8.DD-L	2A-X~ 2d-X 2fn 2a-X	p
16AA-Jk	.	.
8DD-L	.	.
8AA-J	.	.
=42	=42	=42
*	*clefF4	*
!Tempo Marking: au Mouvt	!Tempo Marking: au Mouvt	!Tempo Marking: au Mouvt
(<8qAA-/	.	f
!	!Expression: apre	!
[4DD-^)	4r	.
.	(<8qEn/	<
8DD-]	8AAn^L)	.
.	(<8qAn/	.
8r	8Dn^J)	[
=43	=43	=43
(<32qqEn^/LLL	.	f
32qqAAn/	.	.
32qqAA-X/JJJ	.	.
[4DD-^)	4r	.
.	(<8qE-/	<
8DD-]	8AA-^L)	.
.	(<8qAn/	.
8r	8Dn^J)	[
=44	=44	=44
(<32qqDn^/LLL	.	ff
32qqGG-X/	.	.
32qqFF/JJJ	.	.
*^	*^	*
8.BBB-L)	4ryy	4r	4ryy	<
[16FnJk	.	.	.	.
*	*	*clefG2	*	*
!	!	!Expression: passionnement	!	!
8FL_	[4B- [4dn [4fn	(>[4f# [4ff#	[4b- [4ddn	[
8FFJ	.	.	.	.
=45	=45	=45	=45	=45
8.BBB-L	2F] 2B-] 2d] 2f]	8f#XL] 8ff#X]	2b-] 2dd]	.
.	.	8gnJ 8ggn	.	.
16FFJk	.	.	.	.
8BBB-L	.	12gL 12gg	.	.
.	.	12cc 12ccc	.	.
8FFJ	.	.	.	.
.	.	12anJ) 12aan	.	.
=46	=46	=46	=46	=46
2B- 2dn 2fn	8.FnL	(>8f#L 8ff#	2b- 2ddn	.
.	.	[8gnJ [8ggn	.	.
.	16FFJk	.	.	.
.	8BBB-L	12gL] 12gg]	.	.
.	.	12cc 12ccc	.	.
.	8FFJ	.	.	.
.	.	12anJ) 12aan	.	.
=47	=47	=47	=47	=47
[2F~ [2B- [2d-X [2en	8.FL	[2g-X~ [2gg-X	[2b- [2dd-X	mf
.	16FFJk	.	.	.
.	8BBB-L	.	.	.
.	8FFJ	.	.	.
=48	=48	=48	=48	=48
2F] 2B-] 2d-] 2e]	8.BBB-L	(>8g-L] 8gg-]	2b-] 2dd-X]	.
!	!	!	!	!Dynamic Expression: dim.
.	.	[8gnJ [8ggn	.	.
.	16FFJk	.	.	.
.	8BBB-L	12gL] 12gg]	.	.
.	.	12cc 12ccc	.	.
.	8FFJ	.	.	.
.	.	12anJ) 12aan	.	.
=49	=49	=49	=49	=49
2F 2B- 2d-X 2en	8.FL	(>8f#L 8ff#	2b- 2dd-X	>
.	.	[8gnJ [8ggn	.	.
.	16FFJk	.	.	.
.	8BBB-L	12gL] 12gg]	.	.
.	.	12cc 12ccc	.	.
.	8FFJ	.	.	.
.	.	12anJ) 12aan	.	]
*v	*v	*	*	*
*	*v	*v	*
*	*clefF4	*
=50	=50	=50
!	!Expression: ironique	!
(<32qqDn/LLL	.	]p
32qqGG-X/	.	.
32qqFF/	.	.
32qqBBB-/JJJ	.	.
4BBB-~)	2ryy	.
(<32qqD/LLL	.	.
32qqGG-/	.	.
32qqFF/	.	.
32qqBBB-/JJJ	.	.
8BBB-~L)	.	.
(<32qqB-/LLL	.	.
32qqD/	.	.
32qqD-/	.	.
32qqGG-X/JJJ	.	.
8GG-~J)	.	.
=51	=51	=51
(<32qqDn/LLL	.	.
32qqGG-X/	.	.
32qqFF/	.	.
32qqBBB-/JJJ	.	.
4BBB-~)	2ryy	.
(<32qqD/LLL	.	.
32qqGG-/	.	.
32qqFF/	.	.
32qqBBB-/JJJ	.	.
8BBB-~L)	.	.
(<32qqB-/LLL	.	.
32qqD/	.	.
32qqD-/	.	.
32qqGG-X/JJJ	.	.
8GG-X~J)	.	.
=52	=52	=52
[8qC/	.	>
6.FF' 6.C]	(>12D-X'L 12An	.
.	12D-' 12A	.
.	12C'J 12A-X	.
(>[8qBBn/	.	.
12EEn') 12BB]	8C-~L 8Gn	.
[8qBB-X/	.	.
12EE-X'L 12BB-]	.	.
.	8BB-X~J) 8G-X	.
[8qAAn/	.	.
12DDn'J) 12AA]	.	]
=53	=53	=53
(<32qqDn/LLL	.	<p
32qqFF/	.	.
32qqGG-X/	.	.
32qqBBB-/JJJ	.	.
*^	*	*
2BBB-	4ryy	4ryy	[
.	4En) 4Gn	4An 4c#	.
=54	=54	=54	=54
(<32qqDn/LLL	.	.	<p
32qqFF/	.	.	.
32qqGG-X/	.	.	.
32qqBBB-/JJJ	.	.	.
2BBB-	4ryy	4ryy	[
.	4Gn) 4B-X	4cn 4en	.
=55	=55	=55	=55
*	*	*clefG2	*
.	(>32qqc\LLL	(<32qqf#/LLL	.
.	32qqBn\JJJ	32qqgn/JJJ	.
!	!	!Expression: gracieux	!
8.rEE	2A-) 2B-X 2f	4dn~) 4a-	.
(>16FF	.	.	.
8BBB-L	.	(8d'L 8a-	<
8FF'J)	.	8a-'J) 8een	.
=56	=56	=56	=56
.	(>32qqc\LLL	(<32qqf#/LLL	[p
.	32qqBn\JJJ	32qqgn/JJJ	.
8.rEE	2A-) 2B-X 2f	4dn~) 4a-	.
(>16FF	.	.	.
8BBB-L	.	(<8d'L 8a-	<
8FF'J)	.	8a-'J) 8een	.
*v	*v	*	*
=57	=57	=57
(>6.f	(>12gnL 12ee-X	[
.	12ggn 12eee-	.
.	12ff#J 12dddn	.
12f#	8f#'L 8ddn	>
12dnL	.	.
.	8fn'J) 8dd-X	.
12d-XJ)	.	]
=58	=58	=58
(<32qqa-/LLL	.	pp
32qqd-/	.	.
32qqc/	.	.
32qqc-X/	.	.
32qqF/JJJ)	.	.
4F~	2ryy	.
(<32qqa-/LLL	.	.
32qqd-/	.	.
32qqcn/	.	.
32qqc-X/	.	.
32qqF/JJJ)	.	.
(>8F'L	.	.
(<32qqeen/LLL	.	.
32qqan/	.	.
32qqa-X/	.	.
32qqg-X/	.	.
32qqcn/JJJ	.	.
8cn'J))	.	.
=59	=59	=59
(>6.Bn 6.fn	(>12a-X'L 12ee-X	.
.	12a-' 12ee-	.
.	12gn'J 12ddn	.
12B-X' 12f-	8g-X~L 8dd-X	.
12An'L 12e-	.	.
.	8f~J) 8cc	.
12A-X'J) 12dn	.	.
=60	=60	=60
(<8qc/	.	.
4F) 4c-	(>4d-X 4a-	.
(<8qAn/	.	.
[4Dn) [4A-X	[4B-~ [4f	.
=61	=61	=61
4D] 4A-]	4B-] 4f]	.
8qqcn/	.	.
4F) 4c-	4d-X~) 4a-	.
=62	=62	=62
*^	*	*
!Tempo Marking: En retenant	!Tempo Marking: En retenant	!Tempo Marking: En retenant	!Tempo Marking: En retenant
*	*	*clefF4	*
[2AA-	8.rc	(4B-- 4d-X 4f	.
.	16Gn	.	p<
.	8B-L	4G-X) 4c 4en	.
.	8A-J	.	[
=63	=63	=63	=63
2AA-]	(<12Gn'L	(4B-- 4d- 4f	.
.	12G'	.	.
.	12G'J)	.	.
.	8B-L	4G-) 4c 4en	>
.	8A-J	.	.
=64	=64	=64	=64
!	!	!	!Dynamic Expresion: piu
[2AA-	8.rc	(4B-- 4d- 4f	]p<
.	16Gn	.	.
.	8B-L	[4G-) [4c [4en	[
.	8A-J	.	.
*v	*v	*	*
=65	=65	=65
(<8.AA-L]	8G-] 8c] 8e]	>
.	8r	.
16GGnJk	.	.
8BB-L	4r	.
8AA-J)	.	]
*	*clefG2	*
=66	=66	=66
*^	*	*
!Tempo Marking: au Mouvt	!Tempo Marking: au Mouvt	!Tempo Marking: au Mouvt	!Tempo Marking: au Mouvt
(>8.DD-L	[2F [2Bn	[2gn	.
16AA-Jk)	.	.	.
8DD-'L	.	.	.
8AA-'J)	.	.	.
=67	=67	=67	=67
!Expression: simile	!	!	!
8.DD-L	2F_ 2B]	2gn_	.
16AA-Jk	.	.	.
8DD-L	.	.	.
8AA-J	.	.	.
=68	=68	=68	=68
*	*^	*	*
8.DD-L	(<4Bn	2F\]	2gn_	.
16AA-Jk	.	.	.	.
8DD-L	[4c	.	.	.
8AA-J	.	.	.	.
*	*v	*v	*	*
=69	=69	=69	=69
8.DD-L	4c]	2gn]	.
16AA-Jk	.	.	.
8DD-L	4dn)	.	.
8AA-J	.	.	.
=70	=70	=70	=70
8.DD-L	2F 2Bn	12r	.
.	.	12en'L 12gn	>
.	.	12e'J 12g	.
16AA-Jk	.	.	.
8DD-L	.	(<8eL 8g	.
8AA-J	.	8dnJ) 8f	]
=71	=71	=71	=71
8.DD-L	[2F [2Bn	12r	.
.	.	12en'L 12gn	>
.	.	12e'J 12g	.
16AA-Jk	.	.	.
8DD-L	.	(<8eL 8g	.
8AA-J	.	8dnJ) 8f	]
=72	=72	=72	=72
8.DD-L	2F] 2Bn]	(<8.enL 8.gn	<
16AA-Jk	.	48fLL 48a-	.
.	.	48g 48bn	.
.	.	48fJJJ 48a-	.
8DD-L	.	[4e) [4g	[
8AA-J	.	.	.
=73	=73	=73	=73
8.DD-L	2F 2Bn	4en] 4gn]	.
16AA-Jk	.	.	.
8DD-L	.	[4e~ [4g	.
8AA-J	.	.	.
=74	=74	=74	=74
*	*	*^	*
8.DD-L	2F 2Bn	(>8.enL_ 8.gn_	4ryy	<
16AA-Jk	.	96eLLL] 96g]	.	.
.	.	96f 96a-	.	.
.	.	96g 96bn	.	.
.	.	96a- 96dd-X	.	.
.	.	96g 96b	.	.
.	.	96fJJJJ 96a-	.	.
8DD-L	.	[8.eL)	4g	[>
8AA-J	.	.	.	.
.	.	112eLLL]	.	.
.	.	112f	.	.
.	.	112e	.	.
.	.	112d-	.	.
.	.	112c	.	.
.	.	112Bn	.	.
.	.	112A-JJJJ	.	.
*	*	*v	*v	*
=75	=75	=75	=75
!	!	!	!Expression: molto dim.
*	*	*clefF4	*
8.DD-L	2F~	(>12F/L	]
.	.	12En'/)	.
.	.	12E'/J	.
16AA-Jk	.	.	.
8DD-L	.	(>8E'/L	.
8AA-J	.	8E-X'/J)	.
=76	=76	=76	=76
8.DD-L	2F	(>12F/L	.
.	.	12En'/)	.
.	.	12E'/J	.
16AA-Jk	.	.	.
8DD-L	.	(>8E'/L	.
8AA-J	.	8E-X'/J)	.
*v	*v	*	*
=77	=77	=77
8.DD-L	[2D-~ [2F	pp
16AA-Jk	.	.
8DD-L	.	.
8AA-J	.	.
=78	=78	=78
8.DD-L	2D-] 2F]	.
16AA-Jk	.	.
8DD-L	.	.
8AA-J	.	.
=79	=79	=79
*^	*	*
.	(>32qqGn\LLL	(<32qqeen/LLL	mp
.	32qqB-\	32qqddn/	.
.	32qqc\	32qqcc/	.
.	32qqdn\	32qqb-/	.
.	[32qqgn\JJJ	32qqen/JJJ)	.
8.r	2G) 2B- 2c 2d 2g]	2e 2b- 2cc 2dd 2ee	.
(>16AA-	.	.	pp
8DD-'L	.	.	.
8AA-'J)	.	.	.
*v	*v	*	*
=80	=80	=80
(<8.DD-L	2r	.
16AA-Jk	.	.
8DD-'L	.	.
8AA-'J)	.	.
=81	=81	=81
*	*^	*
8.DD-/L	[2F~	12E--L	pp
.	.	12D-'	.
.	.	[12D-~J	.
16AA-/Jk	.	.	.
8DD-/L	.	4D-_	.
8AA-/J	.	.	.
=82	=82	=82	=82
2F]	2D-]	8.DD-/L	.
.	.	16AA-/Jk	.
.	.	8DD-/L	.
.	.	8AA-/J	.
*	*v	*v	*
=83	=83	=83
*	*clefG2	*
*	*8va	*
!Tempo Marking: Un peu retarde	!Tempo Marking: Un peu retarde	!Tempo Marking: Un peu retarde
*	*^	*
2r	4ryy	12fff#L	.
.	.	(>32qqfff#\LLL	.
.	.	32qqeeen\	.
.	.	32qqdddn\	.
.	.	32qqccc\	.
.	.	32qqff#\JJJ)	.
.	.	12ff#' 12fff#	.
.	.	12ff#'J 12fff#	.
.	(<32qqaan/LLL	.	.
.	32qqccc/	.	.
.	32qqddd/	.	.
.	32qqeee/	.	.
.	32qqaaan/JJJ)	.	.
.	8cc'	12ff#'L 12fff#	.
.	.	12ggn' 12gggn	.
.	8r	.	.
.	.	12ff#'J 12fff#	.
=84	=84	=84	=84
2r	4ryy	12eeenL	.
.	.	(>32qqeee\LLL	.
.	.	32qqdddn\	.
.	.	32qqccc\	.
.	.	32qqbb-\	.
.	.	32qqeen\JJJ)	.
.	.	12ee' 12eee	>
.	.	12ee'J 12eee	.
.	(<32qqaan/LLL	.	.
.	32qqccc/	.	.
.	32qqddd/	.	.
.	32qqeee/	.	.
.	32qqaaan/JJJ)	.	.
.	8cc'	12ee'L 12eee	.
.	.	12ff#' 12fff#	.
.	8r	.	.
.	.	12ee'J 12eee	]
*	*v	*v	*
*	*X8va	*
=85	=85	=85
!Tempo Marking: au Mouvt	!Tempo Marking: au Mouvt	!Tempo Marking: au Mouvt
.	(<32qqee-X/LLL	ff<
!	!	!Dynamic Expression: molto
.	32qqdd-X/	.
.	32qqa-X/	.
.	32qqfn/JJJ	.
8.r	[2F) [2A- [2d- [2e-	[
16AA-	.	p>
8DD-'L	.	.
8AA-'J	.	.
=86	=86	=86
(<8.DD-L	2F_ 2A-_ 2d-_ 2e-_	]pp
16AA-Jk	.	.
8DD-'L	.	.
8AA-'J)	.	.
=87	=87	=87
(<4DD-'	2F_ 2A-_ 2d-_ 2e-_	.
4AA-')	.	.
=88	=88	=88
(<4DD-'	2F_ 2A-_ 2d-_ 2e-_	.
4AA-')	.	.
=89	=89	=89
4DDD-~ 4DD-	2F_ 2A-_ 2d-_ 2e-_	.
4r	.	.
=90	=90	=90
2r	4F] 4A-] 4d-] 4e-]	.
.	4r	.
==	==	==
*-	*-	*-
!!!system-decoration: {(s1,s2)}
!!!RDF**kern: > = above
!!!RDF**kern: < = below
